X:1
T:Bunker Hill
M:4/4
L:1/2
K:C
 c B/2 A/2| G A| E3/4 A/4 G/2 A/2| B B| c B/2 c/2| d e| c3/4 A/4 B/2 G/2|\
 A A| c d/2 c/2| B B| A B/2 A/2| G G| c3/4 d/4 c/2 B/2| A f| e3/4- d/4 c/2 B/2|\
 A A|

